X: 0652
T: CYNTHIA SUE
B: Oliver Ditson "The Boston Collection of Instrumental Music" 1910 p.65 #2
F: http://conquest.imslp.info/files/imglnks/usimg/8/8f/IMSLP175643-PMLP309456-bostoncollection00bost_bw.pdf
M: 2/4
L: 1/16
K: G
DG |\
B2B2B2B2 | c2c2c2c2 | B>dg>f e>dc>B | A2 (3ded A2 DG |\
B2B2B2 AB | c2c2c2 Bc | d>gf>e d>cB>A | G6 |]
DG |\
B2B2B2B2 | c2c2c2c2 | d2c2 A2F2 | (G2 B4) DG |\
B2B2B2B2 | c2c2c2c2 | d2d2 c2A2 | G2G2G2z2 |]
([d6B6] [B2G2]) | [c2A2][e6c6] | [d4B4] [c4A4] | [B2G2][B2G2] z2[d2B2] |\
[d6B6] [B2G2] | [g6B6] [fd][ec] | [d2B2][c2A2] [B2G2][A2F2] | G6 |]

%%sep 1 1 500
%%sep 1 1 500
